svgs/duotone/tv-music.svg

<svg xmlns="http://www.w3.org/2000/svg" viewBox="0 0 640 512"><!-- Font Awesome Pro 6.0.0-alpha2 by @fontawesome - https://fontawesome.com License - https://fontawesome.com/license (Commercial License) --><defs><style>.fa-secondary{opacity:.4}</style></defs><path d="M512 448H128C110.327 448 96 462.327 96 480V480C96 497.673 110.327 512 128 512H512C529.673 512 544 497.673 544 480V480C544 462.327 529.673 448 512 448ZM592 0H48C21.5 0 0 21.5 0 48V368C0 394.5 21.5 416 48 416H592C618.5 416 640 394.5 640 368V48C640 21.5 618.5 0 592 0ZM576 352H64V64H576V352Z" class="fa-secondary"/><path d="M64 64V352H576V64H64ZM416 256C416 273.625 394.5 288 368 288S320 273.625 320 256S341.5 224 368 224C373.375 224 378.75 224.75 384 226V165.625L288 203.125V288C288 305.625 266.5 320 240 320S192 305.625 192 288S213.5 256 240 256C245.375 256 250.75 256.75 256 258V159.25C256 152.25 260.5 146.125 267.25 144L395.25 96.75C400 95.25 405.375 96.125 409.5 99.125S416 106.875 416 112V256Z" class="fa-primary"/></svg>

<svg xmlns="http://www.w3.org/2000/svg" viewBox="0 0 640 512"><!--! Font Awesome Pro 6.0.0-alpha3 by @fontawesome - https://fontawesome.com License - https://fontawesome.com/license (Commercial License) --><defs><style>.fa-secondary{opacity:.4}</style></defs><path class="fa-primary" d="M64 64v288h512V64H64zM416 256c0 17.62-21.5 32-48 32S320 273.6 320 256s21.5-32 48-32c5.375 0 10.75 .75 16 2V165.6l-96 37.5V288c0 17.62-21.5 32-48 32S192 305.6 192 288s21.5-32 48-32C245.4 256 250.8 256.8 256 258V159.3C256 152.3 260.5 146.1 267.3 144l128-47.25C400 95.25 405.4 96.13 409.5 99.13S416 106.9 416 112V256z"/><path class="fa-secondary" d="M512 448H127.1C110.3 448 96 462.3 96 479.1S110.3 512 127.1 512h384C529.7 512 544 497.7 544 480S529.7 448 512 448zM592 0h-544C21.5 0 0 21.5 0 48v320C0 394.5 21.5 416 48 416h544c26.5 0 48-21.5 48-48v-320C640 21.5 618.5 0 592 0zM576 352H64V64h512V352z"/></svg>
